storage/app/icons/phosphoricons/light/paint-roller-light.svg

<svg xmlns="http://www.w3.org/2000/svg" fill="currentColor" viewBox="0 0 256 256"><path d="M232 90h-18V64a14 14 0 0 0-14-14H48a14 14 0 0 0-14 14v26H16a6 6 0 0 0 0 12h18v26a14 14 0 0 0 14 14h152a14 14 0 0 0 14-14v-26h18a2 2 0 0 1 2 2v50a2 2 0 0 1-1.45 1.92l-100.4 28.68A14.06 14.06 0 0 0 122 198v34a6 6 0 0 0 12 0v-34a2 2 0 0 1 1.45-1.92l100.4-28.68A14.06 14.06 0 0 0 246 154v-50a14 14 0 0 0-14-14m-30 38a2 2 0 0 1-2 2H48a2 2 0 0 1-2-2V64a2 2 0 0 1 2-2h152a2 2 0 0 1 2 2Z"/></svg>

<svg xmlns="http://www.w3.org/2000/svg" viewBox="0 0 256 256" fill="currentColor"><path d="M232,90H214V64a14,14,0,0,0-14-14H48A14,14,0,0,0,34,64V90H16a6,6,0,0,0,0,12H34v26a14,14,0,0,0,14,14H200a14,14,0,0,0,14-14V102h18a2,2,0,0,1,2,2v50a2,2,0,0,1-1.45,1.92l-100.4,28.68A14.06,14.06,0,0,0,122,198v34a6,6,0,0,0,12,0V198a2,2,0,0,1,1.45-1.92l100.4-28.68A14.06,14.06,0,0,0,246,154V104A14,14,0,0,0,232,90Zm-30,38a2,2,0,0,1-2,2H48a2,2,0,0,1-2-2V64a2,2,0,0,1,2-2H200a2,2,0,0,1,2,2Z"/></svg>
